frontend/public/assets/material-icons/folder-netlify.svg

<svg xmlns="http://www.w3.org/2000/svg" viewBox="0 0 32 32"><path fill="#26a69a" d="m13.844 7.536-1.288-1.072A2 2 0 0 0 11.276 6H4a2 2 0 0 0-2 2v16a2 2 0 0 0 2 2h24a2 2 0 0 0 2-2V10a2 2 0 0 0-2-2H15.124a2 2 0 0 1-1.28-.464"/><path fill="#a7ffeb" d="M22 16h-4v6h2v-4h1.5a.5.5 0 0 1 .5.5V22h2v-4a2 2 0 0 0-2-2"/><rect width="6" height="2" x="26" y="18" fill="#a7ffeb" rx=".5"/><rect width="2" height="6" x="20" y="8" fill="#a7ffeb" rx=".5"/><rect width="6" height="2" x="10" y="18" fill="#a7ffeb" rx=".5"/><rect width="2" height="6" x="20" y="24" fill="#a7ffeb" rx=".5"/><path fill="#a7ffeb" d="m13 12.172 1.414-1.414 2.828 2.828L15.828 15zM15.828 23l1.414 1.414-2.828 2.828L13 25.828z"/></svg>

<svg xmlns="http://www.w3.org/2000/svg" viewBox="0 0 32 32">
  <path d="M13.84376,7.53645l-1.28749-1.0729A2,2,0,0,0,11.27591,6H4A2,2,0,0,0,2,8V24a2,2,0,0,0,2,2H28a2,2,0,0,0,2-2V10a2,2,0,0,0-2-2H15.12412A2,2,0,0,1,13.84376,7.53645Z" style="fill: #26a69a"/>
  <g>
    <path d="M22,16H18v6h2V18h1.5a.5.5,0,0,1,.5.5V22h2V18A2,2,0,0,0,22,16Z" style="fill: #a7ffeb"/>
    <rect x="26" y="18" width="6" height="2" rx="0.5" style="fill: #a7ffeb"/>
    <rect x="20" y="8" width="2" height="6" rx="0.5" style="fill: #a7ffeb"/>
    <rect x="10" y="18" width="6" height="2" rx="0.5" style="fill: #a7ffeb"/>
    <rect x="20" y="24" width="2" height="6" rx="0.5" style="fill: #a7ffeb"/>
    <rect x="14.12132" y="10.87868" width="2" height="4" transform="translate(-4.67767 14.46447) rotate(-45)" style="fill: #a7ffeb"/>
    <rect x="14.12132" y="23.12132" width="2" height="4" transform="translate(22.19239 -3.33452) rotate(45)" style="fill: #a7ffeb"/>
  </g>
</svg>
